X:429
T: AUF DER BERGE FREIEN HOEHEN
N: F0798
O: Europa, Mitteleuropa, Deutschland
R: Geselligkeits -, Trink - Lied
M: 4/4
L: 1/8
K: Eb
 | E2E2G2G2 | B3AG2F2 |
E2F2GAB2 | ABAGF2z2 |
E2E2G2G2 | B3AG2E2 |
=A2F2B2B2 | dcB=AB2z2 |
D2E2F2D2 | FEFGA2F2 |
G3AB2B2 | A2G2F4 |
G3FE2E2 | F2G2A2F2 |
B2c2A2G2 | c4D4 | E4z4

@@@ Tune index: 5860
